X:1
T:Little Sunbeams
T:Little Sunbeams
T:Charles Hutchinson Gabriel
T:Eben Eugene Rexford, 1902
T:Public Domain Courtesy of the Cyber Hymnal™
T:Public Domain Courtesy of the Cyber Hymnal™
C:Charles Hutchinson Gabriel
Z:Public Domain
Z:Courtesy of the Cyber Hymnal™
%%score 1 2
L:1/8
Q:1/4=90
M:2/4
K:F
V:1 treble 
V:2 bass 
V:1
 C | AA GF | E B2 D | ED CB | A3 C | AA GF | E B2 D | ED CG | F3 A | cc AF | F E2 E | BB AG | %12
w: 1.~I|think God gives the|child- ren, as|through the land they|go, The|most de- light- ful|mis- sion that|an- y- one can|know. He|wants us to be|sun- beams of|love and hope and|
w: 2.~The|clouds may hide the|sun- shine of|Heav- en from our|sight, And|life have much of|sor- row to|mar the heart’s de-|light; But|if like faith- ful|sun- beams, we|child- ren do our|
w: 3.~Then|let us live our|miss- ion of|sun- beams day by|day, And|scat- ter joy and|bright- ness a-|bout us all the|way; Let’s|chase a- way life’s|sha- dows with|lov- ing thought and|
 A3 A | cc AF | G B2 D | ED CG | F3 ||"^Refrain" A | cc AF | c E2 c | cB G^G | A3 A | cc AF | %23
w: cheer, To|bright- en up the|sha- dows that|oft- en ga- ther|here.|||||||
w: part, We’ll|bring a ray of|bright- ness to|ev- ery sha- dowed|heart.|O|we are lit- tle|sun- beams, sent|down from God to|man; In|all life’s sha- dy|
w: deed And|be the sun- shine|mak- ers, of|which the world has|need.|||||||
 G B2 D | ED CG | F3 |] %26
w: |||
w: plac- es, we|shine as best we|can.|
w: |||
V:2
 z | F,[A,C] [A,C][A,C] | G, ([B,C] [B,C])[B,C] | C,[G,B,] [G,B,][G,B,] | (F,[A,C] [A,C]) z | %5
 F,[A,C] [A,C][A,C] | G, ([B,C] [B,C])[B,C] | C,[G,B,] [G,B,][G,B,] | (F,[A,C] [A,C]) z | %9
 F,[A,C] [A,C][A,C] | G, ([B,C] [B,C])[B,C] | C,[B,C] [B,C][B,C] | (F,[A,C] [A,C]) z | %13
 F,[A,C] [A,C][A,C] | B,, ([G,B,] [G,B,])[G,B,] | C,[G,B,] [G,B,][G,B,] | (F,[A,C] [A,C]) || z | %18
 F,[A,C] [A,C][A,C] | G, ([B,C] [B,C])[B,C] | C,[B,C] [B,C][B,C] | (F,[A,C] [A,C]) z | %22
 F,[A,C] [A,C][A,C] | B,, ([G,B,] [G,B,])[G,B,] | C,[G,B,] [G,B,][G,B,] | (F,[A,C] [A,C]) |] %26

